X: 12311
T: Fairy, The
R: jig
M: 6/8
K: Gmajor
|:dBA B2A|GBd gab|age edB|BAG Age|
dBA B2A|GBd gab|age dBA|BGF G2B:|
|:ded deg|aba aga|bge edB|BAG Age|
dBA B2A|GBd gab|age dBA|1 BGF G2B:|2 BGF Gge||

